src/actions/16/im-user-busy.svg

<svg xmlns="http://www.w3.org/2000/svg" viewBox="0 0 16 16">
    <path fill="#ec9b97" d="M8 2a3 3 0 1 0 0 6 3 3 0 0 0 0-6M7 3h1v2h1v1H7zm1 6c-2.761 0-5 2.01-5 4.5.001.167.012.334.033.5h9.93a3.99 3.99 0 0 0 .037-.5C13 11.015 10.761 9 8 9m0 1c1.987.002 3.671 1.279 3.955 3h-7.91c.284-1.721 1.968-2.998 3.955-3"/>
    <path fill="#000" d="M7 3v3h2V5H8V3z"/>
</svg>

<?xml version="1.0" encoding="UTF-8" standalone="no"?>
<svg
   viewBox="0 0 16 16"
   version="1.1"
   id="svg145"
   sodipodi:docname="im-user-busy.svg"
   inkscape:version="1.2.2 (b0a8486541, 2022-12-01)"
   xmlns:inkscape="http://www.inkscape.org/namespaces/inkscape"
   xmlns:sodipodi="http://sodipodi.sourceforge.net/DTD/sodipodi-0.dtd"
   xmlns="http://www.w3.org/2000/svg"
   xmlns:svg="http://www.w3.org/2000/svg">
  <defs
     id="defs149">
    <inkscape:path-effect
       effect="powerclip"
       id="path-effect376"
       is_visible="true"
       lpeversion="1"
       inverse="true"
       flatten="false"
       hide_clip="false"
       message="Use fill-rule evenodd on &lt;b&gt;fill and stroke&lt;/b&gt; dialog if no flatten result after convert clip to paths." />
    <clipPath
       clipPathUnits="userSpaceOnUse"
       id="clipPath372">
      <path
         fill="#ffffff"
         d="M 7,3 V 6 H 9 V 5 H 8 V 3 Z"
         id="path374"
         style="display:none" />
      <path
         id="lpe_path-effect376"
         class="powerclip"
         d="M -2,-3 H 18 V 19 H -2 Z M 7,3 V 6 H 9 V 5 H 8 V 3 Z" />
    </clipPath>
  </defs>
  <sodipodi:namedview
     id="namedview147"
     pagecolor="#ffffff"
     bordercolor="#000000"
     borderopacity="0.25"
     inkscape:showpageshadow="2"
     inkscape:pageopacity="0.0"
     inkscape:pagecheckerboard="0"
     inkscape:deskcolor="#d1d1d1"
     showgrid="false"
     inkscape:zoom="51.3125"
     inkscape:cx="5.7295981"
     inkscape:cy="8.0194884"
     inkscape:window-width="1920"
     inkscape:window-height="1021"
     inkscape:window-x="0"
     inkscape:window-y="0"
     inkscape:window-maximized="1"
     inkscape:current-layer="svg145" />
  <path
     fill="#d48787"
     d="M 8,2 C 6.343,2 5,3.343 5,5 5,6.657 6.343,8 8,8 9.657,8 11,6.657 11,5 11,3.343 9.657,2 8,2 M 7,3 H 8 V 5 H 9 V 6 H 7 Z m 1,6 c -2.761,0 -5,2.01 -5,4.5 10e-4,0.167 0.012,0.334 0.033,0.5 h 9.93 C 12.986,13.834 12.998,13.667 13,13.5 13,11.015 10.761,9 8,9 m 0,1 c 1.987,0.002 3.671,1.279 3.955,3 H 4.045 C 4.329,11.279 6.013,10.002 8,10"
     id="path141"
     clip-path="url(#clipPath372)"
     inkscape:path-effect="#path-effect376"
     inkscape:original-d="m8 2c-1.657 0-3 1.343-3 3 0 1.657 1.343 3 3 3 1.657 0 3-1.343 3-3 0-1.657-1.343-3-3-3m-1 1h1v2h1v1h-2zm1 6c-2.761 0-5 2.01-5 4.5.001.167.012.334.033.5h9.93c.023-.166.035-.333.037-.5 0-2.485-2.239-4.5-5-4.5m0 1c1.987.002 3.671 1.279 3.955 3h-7.91c.284-1.721 1.968-2.998 3.955-3" />
</svg>
